icons/rainbow-fill.svg

<svg xmlns="http://www.w3.org/2000/svg" width="24" height="24" fill="none"><g clip-path="url(#a)"><g><path fill="#121212" d="M12 4C18.075 4 23 8.925 23 15V20H20V15C20 12.9216 19.1911 10.9247 17.7445 9.43229C16.298 7.93985 14.3274 7.06895 12.25 7.004L12 7C9.92157 7.00002 7.92474 7.80894 6.4323 9.25547C4.93985 10.702 4.06895 12.6726 4.004 14.75L4 15V20H1V15C1 8.925 5.925 4 12 4ZM12 8C13.8565 8 15.637 8.7375 16.9497 10.0503C18.2625 11.363 19 13.1435 19 15V20H16V15C16 13.9738 15.6056 12.9868 14.8983 12.2432C14.191 11.4996 13.225 11.0563 12.2 11.005L12 11C10.9738 11 9.98677 11.3944 9.24319 12.1017C8.4996 12.809 8.05631 13.775 8.005 14.8L8 15V20H5V15C5 13.1435 5.7375 11.363 7.05025 10.0503C8.36301 8.7375 10.1435 8 12 8ZM12 12C12.7956 12 13.5587 12.3161 14.1213 12.8787C14.6839 13.4413 15 14.2044 15 15V20H9V15C9 14.2044 9.31607 13.4413 9.87868 12.8787C10.4413 12.3161 11.2044 12 12 12Z"/></g></g><defs><clipPath id="a"><rect width="24" height="24" fill="white"/></clipPath></defs></svg>

<svg width="24" height="24" fill="none" xmlns="http://www.w3.org/2000/svg"><g clip-path="url(#a)"><path d="M12 4c6.075 0 11 4.925 11 11v5h-3v-5a8 8 0 0 0-7.75-7.996L12 7a8 8 0 0 0-7.996 7.75L4 15v5H1v-5C1 8.925 5.925 4 12 4Zm0 4a7 7 0 0 1 7 7v5h-3v-5a4 4 0 0 0-3.8-3.995L12 11a4 4 0 0 0-3.995 3.8L8 15v5H5v-5a7 7 0 0 1 7-7Zm0 4a3 3 0 0 1 3 3v5H9v-5a3 3 0 0 1 3-3Z" /></g><defs><clipPath id="a"><path fill="#fff" d="M0 0h24v24H0z"/></clipPath></defs></svg>
